public/avatar/shoe/180.svg

<svg xmlns:xlink="http://www.w3.org/1999/xlink" height="38.3" width="36.05" xmlns="http://www.w3.org/2000/svg"><use height="18.45" transform="translate(10.9 10.45)" width="20.85" xlink:href="#a"/><defs><g id="a" fill-rule="evenodd"><path d="M.65-2.25 3.3-2.6l1.95.25q1.3 1 1.5 1.95.45 2.35.3 4.5l.8 1.95Q8.3 8.1 6.1 10q-4 3.25-7.55 3.8-4.95.7-8.25-.65-1.9-.8-2.95-3.15-.45-1.25-.15-3.7.1-1.3 1.95-2.7 3.1-2.5 3.95-3.8l1.05-2.6q.8-.15.95-.5.2-1.15 1.9-1.1 2 .05 3.65 2.15" transform="translate(12.9 4.4)"/><path d="m6.15 4.35-18.2 2.85q-.15 1 .25 2.35.55 1.5 2.1 2.45 1.3.8 6.75 1 1.15.05 2.9-.7 1.6-.8 1.8-.85L5.1 9.3q1.65-1.05 1.7-1.65.2-.65 0-2.2l-.65-1.1" fill="#fcf7fb" transform="translate(12.9 4.4)"/><path d="m6.65 4.95-.7-.6-18 2.85q-.4 1.05.45 2.8.4.7 3.5 1.05 4.9.4 6.65-.05Q.3 10.5 3.7 7.45q.7-.65 2.4-.9.35-.2.85-.45l-.3-1.15" transform="translate(12.9 4.4)"/><path d="m4.35-1.9.95 1 .1.05-.15.2Q3 3.2 2 3.05-.6 2.7-.75-.7q-.05-1 .95-.9l2.7-.3q.85-.3 1.45 0" fill="#613c0b" transform="translate(12.9 4.4)"/><path d="M3.7-1.15q.25-.6-.35-.95.8-.3 1.5.3.6.5 0 1.8Q3.1 3.9 1.1 2.2-.75.5.25-1.35.4 0 2.85-.45q.75-.15.85-.7" fill="#91652b" transform="translate(12.9 4.4)"/><path d="M.1-.3Q-.05.05.95.9q.9.9 1.45.8 1.65-3.1 2.85-2.75.95.2 1.15 3.2V4.6q-.5.9-2.4 1.7-2.1.75-4.65 3.3l-5.4.55q-4.3-.1-5.6-1.45-.85-2.35-.15-3.25 1.75-2.15 3.2-3.05Q-5.7.45-5.65-1.45q.05-1.25 1.8-.95l2.35-.05q1.35-.1 1.5.35Q.3-.9.1-.3" fill="#f9ce8a" transform="translate(12.9 4.4)"/><path d="M5.25-.55q.6.35.9 1.7.4 2.55-1.15 2.6-1.4 0-1.65-.5-.2-.2.25-1.5 1-2.2 1.3-2.35l-.1-.1.25.05q-.8 2.35.15 2.3.9-.1.65-1.15l-.6-1.05m-14.7 6.4q.05-.45-.65-.85-2 .65-.65 1.65l.8-.1.5-.7m-.65-1.3q.5 0 1.05.9Q-8.5 6.7-7.9 7l.1.1q-.1.5-1.95 1.1-2.25.5-1.95-1.75.1-1.75 1.6-1.9" fill="#fac069" transform="translate(12.9 4.4)"/><path d="M5.25-.55 5.85.5q.25 1.05-.65 1.15-.95.05-.15-2.3L5-.7l.25.15m-14.7 6.4-.5.7-.8.1q-1.35-1 .65-1.65.7.4.65.85" fill="#fde3bd" transform="translate(12.9 4.4)"/><path d="M5.05-.65 4.8-.7l.1.1q-.3.15-1.3 2.35-.45 1.3-.25 1.5.25.5 1.65.5 1.55-.05 1.15-2.6-.3-1.35-.9-1.7L5-.7l.05.05M2.45 7.2Q-.2 4.1 4.65-1.05q1.2-.85 1.7 2.1.4 2.45.05 3.55-.45 1.1-1.95 1.5-1.25.3-2 1.1M-8.2 2.55l4.35 2Q-.8 6.25-1 9.6q-.05.8-3.25.65Q-11 10-11.65 8.7q-1.15-2.25-.15-3.35l3.2-2.95.4.15m-1.9 2q-1.5.15-1.6 1.9Q-12 8.7-9.75 8.2q1.85-.6 1.95-1.1l-.1-.1q-.6-.3-1.15-1.55-.55-.9-1.05-.9" fill="#f5650c" transform="translate(12.9 4.4)"/><path d="M-4-3.45q1.1-.5 3.2.55 1 .35 1 1.55Q.15-.15-.1.4q-1.55 3.1-4.45 5.05Q-7 7.15-8.1 5.9-9.45 4.3-8.55 3-5.7-.35-4.7-2.75l.05-.15.65-.55" fill="#ee2f00" transform="translate(12.9 4.4)"/><path d="m-9.7 11.4 3.3.3q4.3.15 6.95-.95-2.2 2.35-7.7 1.8l-2.1-.6-1.5-.85v-.05l1.05.35" fill="#d7a760" transform="translate(12.9 4.4)"/><path d="M-.65-.85Q-.9-.6-1.7-.2q-1.5 1.5-1.9 2.35l-1.05 1.9-.35.5-.3.25-.05.1q-.85 1.15-2.1.35-.9-.6.5-1.95l1.15-1.55L-4.7-.2l.45-1.1.4-1.05q1.2-1.1 2.75 0 1 .8.45 1.5" fill="#f7a731" transform="translate(12.9 4.4)"/><path d="m-5.3-.3-.1-.3q-.1-.7.45-1.35.45-.6.75-.6 2.4.5 3.75 1.75.3.4 0 1.3-.35 1-1.25.75l-.5-.15.3.35q.3.35-.05 1.4-.5 1.05-1.4.8l-.3-.05.05.05q.3.3-.2 1.3-.5.95-1.4.7-3.15-1.05-3.25-2-.1-.75.45-1.3l.7-.45h.5l-.05-.2Q-6.9.95-6.4.25l.85-.55h.25" fill="#300c03" transform="translate(12.9 4.4)"/><path d="M-1.05-.45Q-2.45-1.9-4.4-1.9q-.9-.2-.45 1.1.15.45 1.55 1.1 1.45.65 1.9.55.45-.1.55-.55.05-.5-.2-.75m-1.3 2.8q.05-.15-.45-.95Q-3.1.85-5.5.05q-.9-.3-.65 1.25.1.5 2.55 1.75.7.3 1.25-.7M-4.5 4.8q.65-.45.1-.95l-2.4-1.5-.75.55q-.3.55 1.2 1.5 1.25.8 1.85.4" fill="#fcd0e3" transform="translate(12.9 4.4)"/><path d="M-3.2 1.05Q-4.25.4-4.65.45q-1.3.05.25 1.25 1.65 1.15 1.75.3.55-.3-.55-.95m.3-1.3Q-1.25.85-1.2 0q.6-.35-.5-1-1.05-.65-1.5-.55-1.3.1.3 1.3M-6.05 3.1q-1 .1.25.9 1.2.85 1.3.3-1.2-1.25-1.55-1.2" fill="#fff" transform="translate(12.9 4.4)"/></g></defs></svg>

<?xml version="1.0" encoding="UTF-8" standalone="no"?>
<svg xmlns:xlink="http://www.w3.org/1999/xlink" height="38.3px" width="36.05px" xmlns="http://www.w3.org/2000/svg">
  <g transform="matrix(1.0, 0.0, 0.0, 1.0, 23.8, 14.85)">
    <use height="18.45" transform="matrix(1.0, 0.0, 0.0, 1.0, -12.9, -4.4)" width="20.85" xlink:href="#shape0"/>
  </g>
  <defs>
    <g id="shape0" transform="matrix(1.0, 0.0, 0.0, 1.0, 12.9, 4.4)">
      <path d="M0.65 -2.25 L3.3 -2.6 5.25 -2.35 Q6.55 -1.35 6.75 -0.4 7.2 1.95 7.05 4.1 L7.85 6.05 Q8.3 8.1 6.1 10.0 2.1 13.25 -1.45 13.8 -6.4 14.5 -9.7 13.15 -11.6 12.35 -12.65 10.0 -13.1 8.75 -12.8 6.3 -12.7 5.0 -10.85 3.6 -7.75 1.1 -6.9 -0.2 L-5.85 -2.8 Q-5.05 -2.95 -4.9 -3.3 -4.7 -4.45 -3.0 -4.4 -1.0 -4.35 0.65 -2.25" fill="#000000" fill-rule="evenodd" stroke="none"/>
      <path d="M6.15 4.35 L-12.05 7.2 Q-12.2 8.2 -11.8 9.55 -11.25 11.05 -9.7 12.0 -8.4 12.8 -2.95 13.0 -1.8 13.05 -0.05 12.3 1.55 11.5 1.75 11.45 L5.1 9.3 Q6.75 8.25 6.8 7.65 7.0 7.0 6.8 5.45 L6.15 4.35" fill="#fcf7fb" fill-rule="evenodd" stroke="none"/>
      <path d="M6.65 4.95 L5.95 4.35 -12.05 7.2 Q-12.45 8.25 -11.6 10.0 -11.2 10.7 -8.1 11.05 -3.2 11.45 -1.45 11.0 0.3 10.5 3.7 7.45 4.4 6.8 6.1 6.55 6.45 6.35 6.95 6.1 L6.65 4.95" fill="#000000" fill-rule="evenodd" stroke="none"/>
      <path d="M4.35 -1.9 L5.3 -0.9 5.4 -0.85 5.25 -0.65 Q3.0 3.2 2.0 3.05 -0.6 2.7 -0.75 -0.7 -0.8 -1.7 0.2 -1.6 L2.9 -1.9 Q3.75 -2.2 4.35 -1.9" fill="#613c0b" fill-rule="evenodd" stroke="none"/>
      <path d="M3.7 -1.15 Q3.95 -1.75 3.35 -2.1 4.15 -2.4 4.85 -1.8 5.45 -1.3 4.85 0.0 3.1 3.9 1.1 2.2 -0.75 0.5 0.25 -1.35 0.4 0.0 2.85 -0.45 3.6 -0.6 3.7 -1.15" fill="#91652b" fill-rule="evenodd" stroke="none"/>
      <path d="M0.1 -0.3 Q-0.05 0.05 0.95 0.9 1.85 1.8 2.4 1.7 4.05 -1.4 5.25 -1.05 6.2 -0.85 6.4 2.15 L6.4 4.6 Q5.9 5.5 4.0 6.3 1.9 7.05 -0.65 9.6 L-6.05 10.15 Q-10.35 10.05 -11.65 8.7 -12.5 6.35 -11.8 5.45 -10.05 3.3 -8.6 2.4 -5.7 0.45 -5.65 -1.45 -5.6 -2.7 -3.85 -2.4 L-1.5 -2.45 Q-0.15 -2.55 0.0 -2.1 0.3 -0.9 0.1 -0.3" fill="#f9ce8a" fill-rule="evenodd" stroke="none"/>
      <path d="M5.25 -0.55 Q5.85 -0.2 6.15 1.15 6.55 3.7 5.0 3.75 3.6 3.75 3.35 3.25 3.15 3.05 3.6 1.75 4.6 -0.45 4.9 -0.6 L4.8 -0.7 5.05 -0.65 Q4.25 1.7 5.2 1.65 6.1 1.55 5.85 0.5 L5.25 -0.55 M-9.45 5.85 Q-9.4 5.4 -10.1 5.0 -12.1 5.65 -10.75 6.65 L-9.95 6.55 -9.45 5.85 M-10.1 4.55 Q-9.6 4.55 -9.05 5.45 -8.5 6.7 -7.9 7.0 L-7.8 7.1 Q-7.9 7.6 -9.75 8.2 -12.0 8.7 -11.7 6.45 -11.6 4.7 -10.1 4.55" fill="#fac069" fill-rule="evenodd" stroke="none"/>
      <path d="M5.25 -0.55 L5.85 0.5 Q6.1 1.55 5.2 1.65 4.25 1.7 5.05 -0.65 L5.0 -0.7 5.25 -0.55 M-9.45 5.85 L-9.95 6.55 -10.75 6.65 Q-12.1 5.65 -10.1 5.0 -9.4 5.4 -9.45 5.85" fill="#fde3bd" fill-rule="evenodd" stroke="none"/>
      <path d="M5.05 -0.65 L4.8 -0.7 4.9 -0.6 Q4.6 -0.45 3.6 1.75 3.15 3.05 3.35 3.25 3.6 3.75 5.0 3.75 6.55 3.7 6.15 1.15 5.85 -0.2 5.25 -0.55 L5.0 -0.7 5.05 -0.65 M2.45 7.2 Q-0.2 4.1 4.65 -1.05 5.85 -1.9 6.35 1.05 6.75 3.5 6.4 4.6 5.95 5.7 4.45 6.1 3.2 6.4 2.45 7.2 M-8.2 2.55 L-3.85 4.55 Q-0.8 6.25 -1.0 9.6 -1.05 10.4 -4.25 10.25 -11.0 10.0 -11.65 8.7 -12.8 6.45 -11.8 5.35 L-8.6 2.4 -8.2 2.55 M-10.1 4.55 Q-11.6 4.7 -11.7 6.45 -12.0 8.7 -9.75 8.2 -7.9 7.6 -7.8 7.1 L-7.9 7.0 Q-8.5 6.7 -9.05 5.45 -9.6 4.55 -10.1 4.55" fill="#f5650c" fill-rule="evenodd" stroke="none"/>
      <path d="M-4.0 -3.45 Q-2.9 -3.95 -0.8 -2.9 0.2 -2.55 0.2 -1.35 0.15 -0.15 -0.1 0.4 -1.65 3.5 -4.55 5.45 -7.0 7.15 -8.1 5.9 -9.45 4.3 -8.55 3.0 -5.7 -0.35 -4.7 -2.75 L-4.65 -2.9 -4.0 -3.45" fill="#ee2f00" fill-rule="evenodd" stroke="none"/>
      <path d="M-9.7 11.4 L-6.4 11.7 Q-2.1 11.85 0.55 10.75 -1.65 13.1 -7.15 12.55 L-9.25 11.95 -10.75 11.1 -10.75 11.05 -9.7 11.4" fill="#d7a760" fill-rule="evenodd" stroke="none"/>
      <path d="M-0.65 -0.85 Q-0.9 -0.6 -1.7 -0.2 -3.2 1.3 -3.6 2.15 L-4.65 4.05 -5.0 4.55 -5.3 4.8 -5.35 4.9 Q-6.2 6.05 -7.45 5.25 -8.35 4.65 -6.95 3.3 L-5.8 1.75 -4.7 -0.2 -4.25 -1.3 -3.85 -2.35 Q-2.65 -3.45 -1.1 -2.35 -0.1 -1.55 -0.65 -0.85" fill="#f7a731" fill-rule="evenodd" stroke="none"/>
      <path d="M-5.3 -0.3 L-5.4 -0.6 Q-5.5 -1.3 -4.95 -1.95 -4.5 -2.55 -4.2 -2.55 -1.8 -2.05 -0.45 -0.8 -0.15 -0.4 -0.45 0.5 -0.8 1.5 -1.7 1.25 L-2.2 1.1 -1.9 1.45 Q-1.6 1.8 -1.95 2.85 -2.45 3.9 -3.35 3.65 L-3.65 3.6 -3.6 3.65 Q-3.3 3.95 -3.8 4.95 -4.3 5.9 -5.2 5.65 -8.35 4.6 -8.45 3.65 -8.55 2.9 -8.0 2.35 L-7.3 1.9 -6.8 1.9 -6.85 1.7 Q-6.9 0.95 -6.4 0.25 L-5.55 -0.3 -5.3 -0.3" fill="#300c03" fill-rule="evenodd" stroke="none"/>
      <path d="M-1.05 -0.45 Q-2.45 -1.9 -4.4 -1.9 -5.3 -2.1 -4.85 -0.8 -4.7 -0.35 -3.3 0.3 -1.85 0.95 -1.4 0.85 -0.95 0.75 -0.85 0.3 -0.8 -0.2 -1.05 -0.45" fill="#fcd0e3" fill-rule="evenodd" stroke="none"/>
      <path d="M-2.35 2.35 Q-2.3 2.2 -2.8 1.4 -3.1 0.85 -5.5 0.05 -6.4 -0.25 -6.15 1.3 -6.05 1.8 -3.6 3.05 -2.9 3.35 -2.35 2.35" fill="#fcd0e3" fill-rule="evenodd" stroke="none"/>
      <path d="M-4.5 4.8 Q-3.85 4.35 -4.4 3.85 L-6.8 2.35 -7.55 2.9 Q-7.85 3.45 -6.35 4.4 -5.1 5.2 -4.5 4.8" fill="#fcd0e3" fill-rule="evenodd" stroke="none"/>
      <path d="M-3.2 1.05 Q-4.25 0.4 -4.65 0.45 -5.95 0.5 -4.4 1.7 -2.75 2.85 -2.65 2.0 -2.1 1.7 -3.2 1.05" fill="#ffffff" fill-rule="evenodd" stroke="none"/>
      <path d="M-2.9 -0.25 Q-1.25 0.85 -1.2 0.0 -0.6 -0.35 -1.7 -1.0 -2.75 -1.65 -3.2 -1.55 -4.5 -1.45 -2.9 -0.25" fill="#ffffff" fill-rule="evenodd" stroke="none"/>
      <path d="M-6.05 3.1 Q-7.05 3.2 -5.8 4.0 -4.6 4.85 -4.5 4.3 -5.7 3.05 -6.05 3.1" fill="#ffffff" fill-rule="evenodd" stroke="none"/>
    </g>
  </defs>
</svg>
